packages/credential/logos/visit-black.svg

<svg width="24" height="24" viewBox="0 0 24 24" fill="none" xmlns="http://www.w3.org/2000/svg">
    <path
        d="M19.9754 12.5948C20.0866 11.182 19.819 9.76507 19.2001 8.49018C18.1757 9.46352 16.9648 10.2193 15.6403 10.7119C15.7468 12.0191 15.6878 13.3345 15.4647 14.6269C17.0764 14.221 18.6036 13.533 19.9754 12.5948ZM14.1611 14.8903C14.4231 13.6375 14.5147 12.3551 14.4335 11.0778C13.6524 11.264 12.8377 11.3625 12.0001 11.3625C11.1624 11.3625 10.3478 11.264 9.56671 11.0778C9.48733 12.3551 9.57893 13.6373 9.83909 14.8903C11.2714 15.1098 12.7288 15.1098 14.1611 14.8903ZM10.1722 16.1775C11.3865 16.3212 12.6136 16.3212 13.828 16.1775C13.4106 17.5211 12.7945 18.7945 12.0001 19.9556C11.2057 18.7945 10.5895 17.5211 10.1722 16.1775ZM8.53544 14.6278C8.31116 13.3349 8.25217 12.0188 8.35987 10.7111C7.03511 10.2186 5.82387 9.46281 4.79923 8.48936C4.18048 9.76457 3.91312 11.1818 4.02475 12.5948C5.39661 13.533 6.92373 14.2219 8.53544 14.6278ZM19.676 14.2356C19.2617 15.6393 18.4709 16.9027 17.3893 17.8887C16.3078 18.8747 14.9768 19.5455 13.5408 19.8284C14.26 18.6193 14.8088 17.3168 15.1718 15.9577C16.7548 15.6259 18.2751 15.0441 19.676 14.2356ZM4.3242 14.2356C5.70415 15.0322 7.2203 15.6205 8.82833 15.9577C9.19137 17.3168 9.74021 18.6193 10.4593 19.8284C9.0235 19.5456 7.69257 18.8748 6.611 17.889C5.52944 16.9032 4.73856 15.6392 4.3242 14.2356ZM13.5408 4.12635C15.5736 4.5259 17.3723 5.69814 18.5586 7.39655C17.6829 8.28128 16.6376 8.98003 15.4852 9.45089C15.1748 7.57033 14.5153 5.76443 13.5408 4.12635ZM12.0001 4C13.1974 5.74922 13.9841 7.74635 14.3014 9.84224C13.5655 10.0309 12.7943 10.1318 12.0001 10.1318C11.2059 10.1318 10.4347 10.0318 9.6988 9.84224C10.016 7.74634 10.8027 5.74921 12.0001 4ZM10.4593 4.12635C9.48485 5.76443 8.82538 7.57033 8.51493 9.45089C7.36261 8.98005 6.31727 8.2813 5.44162 7.39655C6.62798 5.69839 8.42664 4.52561 10.4593 4.12635Z"
        fill="black" />
</svg>

<svg width="24" height="24" fill="none" xmlns="http://www.w3.org/2000/svg"><path d="M19.975 12.595A7.967 7.967 0 0 0 19.2 8.49a10.463 10.463 0 0 1-3.56 2.222 15.578 15.578 0 0 1-.175 3.915 14.083 14.083 0 0 0 4.51-2.032zm-5.814 2.295c.262-1.253.354-2.535.273-3.812-.782.186-1.596.285-2.434.285-.838 0-1.652-.099-2.433-.285a14.37 14.37 0 0 0 .272 3.812c1.432.22 2.89.22 4.322 0zm-3.989 1.287c1.214.144 2.442.144 3.656 0A14.097 14.097 0 0 1 12 19.956a14.094 14.094 0 0 1-1.828-3.779zm-1.637-1.55a15.481 15.481 0 0 1-.175-3.916A10.463 10.463 0 0 1 4.8 8.49a7.967 7.967 0 0 0-.775 4.106 14.086 14.086 0 0 0 4.51 2.033zm11.141-.391a8.012 8.012 0 0 1-6.135 5.592 15.288 15.288 0 0 0 1.63-3.87 15.285 15.285 0 0 0 4.505-1.722zm-15.352 0a15.276 15.276 0 0 0 4.504 1.722c.363 1.359.912 2.661 1.631 3.87a8.011 8.011 0 0 1-6.135-5.592zm9.217-10.11a8.003 8.003 0 0 1 5.018 3.27 9.243 9.243 0 0 1-3.074 2.055c-.31-1.88-.97-3.687-1.944-5.325zM12 4a14.073 14.073 0 0 1 2.3 5.842 9.257 9.257 0 0 1-4.602 0A14.07 14.07 0 0 1 12 4zm-1.542.126a15.284 15.284 0 0 0-1.944 5.325 9.243 9.243 0 0 1-3.073-2.054 8.004 8.004 0 0 1 5.017-3.27z" fill="#000"/></svg>
